X:1897
T:Den krystade slängpolskan
R:Slängpolska
C:Linus Fredin
M:3/4
L:1/16
K:A
|:A,2CE A4 [EA]2[FA][GA]|[A2A2]c2 ecA2 b2gb|a2e2 c2A2 cdec|
d2dA F2A2 (ed)cB|c2cA E2A2 (dc)BA|d2dA F2A2 (ed)cB|c2cA E2A2 dcBA|
(dB)(=GD) G2B2 d2A2|1 (cB)AG A8:|2 (cB)AG A4 (E2F2)|[=G=G,]4[B=F]4[=cE]4||
K:F
|:f2cA F4 e2cA| G2c2 BAG2 E2DE|F2A2 (Tc4{=Bc}) (fe)fg|(_ag)fe (e2f2) f4:|
g2ec f2dB (cB)AG|[FA,]4 [E^G,]4 [A,^C]4
K:A
|d2dA F2A2 (ed)cB|c2cA E2A2 (dc)BA|d2dA F2A2 (ed)cB|c2cA E2A2 (dc)BA|
(dB)(=GD) G2B2 d2A2| (cB)AG A8||
(:musicend:)
(:music:)
